apps/site/public/mcp/logos/chatgpt.svg

<svg xmlns="http://www.w3.org/2000/svg" fill="none" viewBox="0 0 50 48" height="48" width="50">
<path fill="white" d="M19.3688 17.4566V12.9006C19.3688 12.5169 19.5128 12.229 19.8483 12.0374L29.0086 6.76204C30.2555 6.0427 31.7422 5.70717 33.2767 5.70717C39.0315 5.70717 42.6766 10.1674 42.6766 14.915C42.6766 15.2506 42.6766 15.6343 42.6285 16.018L33.1327 10.4548C32.5573 10.1193 31.9816 10.1193 31.4062 10.4548L19.3688 17.4566ZM40.758 35.2012V24.3145C40.758 23.643 40.4701 23.1634 39.8948 22.8278L27.8573 15.8259L31.7899 13.5718C32.1255 13.3802 32.4134 13.3802 32.749 13.5718L41.9092 18.8471C44.5471 20.382 46.3213 23.643 46.3213 26.808C46.3213 30.4527 44.1633 33.8099 40.758 35.2008V35.2012ZM16.5393 25.6097L12.6067 23.3078C12.2712 23.1162 12.1272 22.8283 12.1272 22.4446V11.8939C12.1272 6.76254 16.0597 2.87767 21.3832 2.87767C23.3977 2.87767 25.2676 3.54924 26.8506 4.74814L17.4029 10.2155C16.8276 10.5511 16.5398 11.0306 16.5398 11.7023V25.6101L16.5393 25.6097ZM25.004 30.5013L19.3688 27.3361V20.6223L25.004 17.4571L30.6388 20.6223V27.3361L25.004 30.5013ZM28.6248 45.0807C26.6104 45.0807 24.7404 44.4091 23.1574 43.2103L32.605 37.7429C33.1804 37.4073 33.4683 36.9278 33.4683 36.2561V22.3483L37.449 24.6502C37.7845 24.8418 37.9285 25.1296 37.9285 25.5134V36.0641C37.9285 41.1954 33.9478 45.0803 28.6248 45.0803V45.0807ZM17.2586 34.3861L8.09836 29.1108C5.46047 27.5759 3.68625 24.315 3.68625 21.1499C3.68625 17.4571 5.89236 14.1481 9.29717 12.7572V23.6915C9.29717 24.3631 9.58512 24.8427 10.1604 25.1783L22.1502 32.1319L18.2176 34.3861C17.8821 34.5777 17.5941 34.5777 17.2586 34.3861ZM16.7314 42.2512C11.3121 42.2512 7.33144 38.1747 7.33144 33.1391C7.33144 32.7554 7.37952 32.3717 7.42719 31.988L16.8749 37.4554C17.4502 37.791 18.026 37.791 18.6013 37.4554L30.6388 30.5018V35.0578C30.6388 35.4415 30.4948 35.7294 30.1592 35.921L20.9991 41.1963C19.7521 41.9157 18.2653 42.2512 16.7309 42.2512H16.7314ZM28.6248 47.958C34.4278 47.958 39.2713 43.8337 40.3747 38.3663C45.746 36.9754 49.1989 31.9398 49.1989 26.8085C49.1989 23.4513 47.7604 20.1904 45.1705 17.8403C45.4103 16.8331 45.5543 15.8259 45.5543 14.8192C45.5543 7.96135 39.991 2.82949 33.5645 2.82949C32.27 2.82949 31.023 3.0211 29.776 3.45299C27.6176 1.34273 24.6441 0 21.3832 0C15.5802 0 10.7368 4.12415 9.6333 9.59154C4.26207 10.9824 0.809082 16.018 0.809082 21.1494C0.809082 24.5066 2.24767 27.7675 4.83748 30.1175C4.5977 31.1247 4.45377 32.1319 4.45377 33.1387C4.45377 39.9966 10.017 45.1284 16.4434 45.1284C17.7381 45.1284 18.9851 44.9368 20.232 44.5049C22.39 46.6151 25.3634 47.958 28.6248 47.958Z"></path>
</svg>

<svg xmlns="http://www.w3.org/2000/svg" width="50" height="48" fill="none" viewBox="0 0 50 48"><path fill="#fff" d="M19.369 17.457V12.9c0-.384.144-.672.48-.864l9.16-5.275c1.247-.72 2.733-1.055 4.268-1.055 5.755 0 9.4 4.46 9.4 9.208 0 .336 0 .72-.048 1.103l-9.496-5.563q-.864-.504-1.727 0zM40.758 35.2V24.314c0-.671-.288-1.15-.863-1.486l-12.038-7.002 3.933-2.254c.336-.192.623-.192.959 0l9.16 5.275c2.638 1.535 4.412 4.796 4.412 7.961 0 3.645-2.158 7.002-5.563 8.393M16.539 25.61l-3.932-2.302c-.336-.192-.48-.48-.48-.863V11.894c0-5.131 3.933-9.016 9.256-9.016 2.015 0 3.885.671 5.468 1.87l-9.448 5.468c-.575.335-.863.815-.863 1.486zm8.465 4.891-5.635-3.165v-6.714l5.635-3.165 5.635 3.165v6.714zm3.62 14.58c-2.014 0-3.884-.672-5.467-1.87l9.448-5.468c.575-.336.863-.815.863-1.487V22.348l3.981 2.302c.336.192.48.48.48.863v10.551c0 5.131-3.981 9.016-9.304 9.016M17.26 34.386 8.1 29.111c-2.639-1.535-4.413-4.796-4.413-7.961 0-3.693 2.206-7.002 5.611-8.393v10.935c0 .671.288 1.15.863 1.486l11.99 6.954-3.932 2.254c-.336.192-.624.192-.96 0m-.528 7.865c-5.419 0-9.4-4.076-9.4-9.112 0-.384.049-.767.096-1.151l9.448 5.467q.863.504 1.726 0l12.038-6.953v4.556c0 .383-.144.671-.48.863L21 41.196c-1.247.72-2.734 1.055-4.268 1.055m11.894 5.707c5.803 0 10.646-4.124 11.75-9.592 5.371-1.39 8.824-6.426 8.824-11.558 0-3.357-1.439-6.618-4.029-8.968.24-1.007.384-2.014.384-3.02 0-6.859-5.563-11.99-11.99-11.99-1.294 0-2.541.191-3.788.623C27.618 1.343 24.644 0 21.383 0 15.58 0 10.737 4.124 9.633 9.592 4.263 10.982.81 16.018.81 21.149c0 3.358 1.439 6.618 4.028 8.968-.24 1.008-.383 2.015-.383 3.022 0 6.858 5.563 11.99 11.99 11.99 1.294 0 2.541-.192 3.788-.624 2.158 2.11 5.131 3.453 8.393 3.453"/></svg>
